SamplesLogo/samp-mark-border.svg

<svg width="1024" height="1024" fill="none" xmlns="http://www.w3.org/2000/svg"><g clip-path="url(#prefix__clip6_93)"><g mask="url(#prefix__mask6_200)" clip-path="url(#prefix__clip6_197)"><g mask="url(#prefix__mask6_204)"><g mask="url(#prefix__mask6_208)" fill-rule="evenodd"><path d="M740.88 170.61l81.67 61.54c5.17 3.9 6.21 11.26 2.3 16.44L630.52 506.48 530.1 430.81l194.34-257.89c3.9-5.18 11.26-6.21 16.44-2.31zM630.52 506.48l-75.77 100.55-24.65-176.22 100.42 75.67z" fill="#299AD9"/><path d="M561.11 650.52l75.78-100.56 24.64 176.23-100.42-75.67z" fill="#1BC4F9"/><path d="M682.38 874.38l-14.86-105-100.54-75.77 18.73 132.45 78.4 59.09c8.17 6.16 19.7-.63 18.27-10.77z" fill="#AD73FB"/><path d="M174.72 491.82l325.8-45.18 50.28 353.11-381.41-287.41c-8.16-6.15-4.79-19.12 5.33-20.52z" fill="#90E2FC"/></g></g><rect x="352.563" y="665.813" rx="50" width="492.188" height="210.938" fill="#FFC225"/><path d="M442.88 815.27c5.11 2.45 11.25 3.68 18.42 3.68 10.13 0 18.1-2.36 23.92-7.08 2.17-1.76 3.93-3.78 5.3-6.03 2.29-3.8 3.44-8.29 3.44-13.47 0-4.63-.77-8.53-2.29-11.71-1.41-2.98-3.27-5.46-5.56-7.42-.14-.12-.28-.25-.43-.37-.75-.6-1.53-1.17-2.33-1.71a33.008 33.008 0 00-5.92-3.19c-2.99-1.28-5.98-2.43-8.96-3.44-2.99-1-5.73-2.05-8.22-3.15-2.5-1.11-4.5-2.42-6.03-3.92-.43-.44-.81-.91-1.12-1.43-.77-1.27-1.16-2.79-1.16-4.54 0-1.56.34-2.92 1.02-4.08.56-.97 1.37-1.81 2.41-2.5 2.28-1.52 5.4-2.29 9.36-2.29 3.46 0 6.56.68 9.3 2.04 2.74 1.34 5.41 3.45 8.03 6.31l11.4-11.37c-3.13-3.63-7.14-6.58-12.05-8.87-4.88-2.29-10.36-3.43-16.44-3.43-5.72 0-10.87 1.02-15.44 3.06-3.4 1.51-6.26 3.51-8.58 6.02-.79.85-1.51 1.76-2.17 2.72-.22.31-.42.62-.61.93-2.21 3.6-3.32 7.89-3.32 12.85 0 4.55.76 8.34 2.29 11.34 1.27 2.51 2.89 4.63 4.85 6.37.38.33.77.65 1.17.96a38.81 38.81 0 008.22 4.75c2.99 1.26 5.97 2.37 8.96 3.34 3.01.97 5.76 2.05 8.25 3.25 2.49 1.17 4.49 2.6 6 4.29.28.32.53.65.76.99 1.01 1.53 1.52 3.39 1.52 5.59 0 1.47-.29 2.78-.88 3.95-.66 1.31-1.7 2.44-3.11 3.38-2.65 1.77-6.22 2.66-10.68 2.66-4.97 0-9.18-.95-12.65-2.85-3.46-1.89-6.49-4.57-9.11-8.03l-11.4 11.4c4.14 4.88 8.76 8.55 13.84 11zm91.2-86.55l-35.81 88.96h17.99l6.35-16.59h36.6l6.27 16.59h18.35l-35.68-88.96h-14.07zm19.68 57.93l-12.73-33.66-12.89 33.66h25.62zm40.57-57.93v88.96h17.22v-52.96l21.63 34.73h11.65l21.78-34.97v53.2h17.08v-88.96h-12.17l-32.47 52.12-32.57-52.12h-12.15zm107.58 0v88.96h17.22v-33.03h17.85c5.62 0 10.69-1.12 15.19-3.37 2.64-1.35 5.02-3.04 7.01-5.04 1.4-1.4 2.65-2.96 3.73-4.69.11-.18.21-.35.32-.53 2.4-4.07 3.6-8.84 3.6-14.33 0-5.6-1.24-10.45-3.72-14.54-.07-.11-.14-.22-.2-.33a26.36 26.36 0 00-3.81-4.76c-1.97-1.96-4.27-3.59-6.89-4.91-.08-.04-.16-.08-.23-.12-4.46-2.2-9.45-3.31-15-3.31h-35.07zm17.22 14.03v27.84h16.06c2.58 0 4.91-.5 7.02-1.49l.3-.15a12.58 12.58 0 003.27-2.3c.73-.72 1.37-1.53 1.93-2.43 1.27-2.08 1.91-4.59 1.91-7.53 0-2.89-.64-5.38-1.91-7.48-.61-1.02-1.33-1.92-2.17-2.7-.88-.83-1.89-1.53-3.03-2.09-.16-.09-.33-.17-.49-.24-2.06-.95-4.33-1.43-6.83-1.43h-16.06z" fill="#000" fill-rule="evenodd"/></g></g></svg>

<svg width="1024.000000" height="1024.000000" viewBox="0 0 1024 1024" fill="none" xmlns="http://www.w3.org/2000/svg" xmlns:xlink="http://www.w3.org/1999/xlink">
	<defs>
		<clipPath id="clip6_197">
			<rect id="mark" width="720.000000" height="720.000000" transform="translate(136.000000 168.000000)" fill="white" fill-opacity="0"/>
		</clipPath>
		<clipPath id="clip6_93">
			<rect id="samp-mark-border" width="1024.000000" height="1024.000000" fill="white" fill-opacity="0"/>
		</clipPath>
	</defs>
	<g clip-path="url(#clip6_93)">
		<g clip-path="url(#clip6_197)">
			<mask id="mask6_200" mask-type="alpha" maskUnits="userSpaceOnUse" x="136.000000" y="168.000000" width="720.000000" height="720.000000">
				<rect id="mark" x="136.000000" y="168.000000" width="720.000000" height="720.000000" fill="#000000" fill-opacity="1.000000"/>
			</mask>
			<g mask="url(#mask6_200)">
				<mask id="mask6_204" mask-type="alpha" maskUnits="userSpaceOnUse" x="164.828125" y="168.000000" width="662.934204" height="720.000000">
					<rect id="mark" x="164.828125" y="168.000000" width="662.934204" height="720.000000" fill="#000000" fill-opacity="1.000000"/>
				</mask>
				<g mask="url(#mask6_204)">
					<mask id="mask6_208" mask-type="alpha" maskUnits="userSpaceOnUse" x="164.828094" y="168.000000" width="662.934204" height="720.000000">
						<rect id="rect" x="164.828094" y="168.000000" width="662.934204" height="720.000000" fill="#000000" fill-opacity="1.000000"/>
					</mask>
					<g mask="url(#mask6_208)">
						<path id="path" d="M740.88 170.61L822.55 232.15C827.72 236.05 828.76 243.41 824.85 248.59L630.52 506.48L530.1 430.81L724.44 172.92C728.34 167.74 735.7 166.71 740.88 170.61ZM630.52 506.48L554.75 607.03L530.1 430.81L630.52 506.48Z" fill="#299AD9" fill-opacity="1.000000" fill-rule="evenodd"/>
						<path id="path" d="M561.11 650.52L636.89 549.96L661.53 726.19L561.11 650.52Z" fill="#1BC4F9" fill-opacity="1.000000" fill-rule="evenodd"/>
						<path id="path" d="M682.38 874.38L667.52 769.38L566.98 693.61L585.71 826.06L664.11 885.15C672.28 891.31 683.81 884.52 682.38 874.38Z" fill="#AD73FB" fill-opacity="1.000000" fill-rule="evenodd"/>
						<path id="path" d="M174.72 491.82L500.52 446.64L550.8 799.75L169.39 512.34C161.23 506.19 164.6 493.22 174.72 491.82Z" fill="#90E2FC" fill-opacity="1.000000" fill-rule="evenodd"/>
					</g>
				</g>
				<rect id="rectangle" x="352.562531" y="665.812500" rx="50.000000" width="492.187500" height="210.937500" fill="#FFC225" fill-opacity="1.000000"/>
				<path id="SAMP" d="M442.88 815.27C447.99 817.72 454.13 818.95 461.3 818.95C471.43 818.95 479.4 816.59 485.22 811.87C487.39 810.11 489.15 808.09 490.52 805.84C492.81 802.04 493.96 797.55 493.96 792.37C493.96 787.74 493.19 783.84 491.67 780.66C490.26 777.68 488.4 775.2 486.11 773.24C485.97 773.12 485.83 772.99 485.68 772.87C484.93 772.27 484.15 771.7 483.35 771.16C481.51 769.91 479.53 768.84 477.43 767.97C474.44 766.69 471.45 765.54 468.47 764.53C465.48 763.53 462.74 762.48 460.25 761.38C457.75 760.27 455.75 758.96 454.22 757.46C453.79 757.02 453.41 756.55 453.1 756.03C452.33 754.76 451.94 753.24 451.94 751.49C451.94 749.93 452.28 748.57 452.96 747.41C453.52 746.44 454.33 745.6 455.37 744.91C457.65 743.39 460.77 742.62 464.73 742.62C468.19 742.62 471.29 743.3 474.03 744.66C476.77 746 479.44 748.11 482.06 750.97L493.46 739.6C490.33 735.97 486.32 733.02 481.41 730.73C476.53 728.44 471.05 727.3 464.97 727.3C459.25 727.3 454.1 728.32 449.53 730.36C446.13 731.87 443.27 733.87 440.95 736.38C440.16 737.23 439.44 738.14 438.78 739.1C438.56 739.41 438.36 739.72 438.17 740.03C435.96 743.63 434.85 747.92 434.85 752.88C434.85 757.43 435.61 761.22 437.14 764.22C438.41 766.73 440.03 768.85 441.99 770.59C442.37 770.92 442.76 771.24 443.16 771.55C445.66 773.44 448.4 775.03 451.38 776.3C454.37 777.56 457.35 778.67 460.34 779.64C463.35 780.61 466.1 781.69 468.59 782.89C471.08 784.06 473.08 785.49 474.59 787.18C474.87 787.5 475.12 787.83 475.35 788.17C476.36 789.7 476.87 791.56 476.87 793.76C476.87 795.23 476.58 796.54 475.99 797.71C475.33 799.02 474.29 800.15 472.88 801.09C470.23 802.86 466.66 803.75 462.2 803.75C457.23 803.75 453.02 802.8 449.55 800.9C446.09 799.01 443.06 796.33 440.44 792.87L429.04 804.27C433.18 809.15 437.8 812.82 442.88 815.27ZM534.08 728.72L498.27 817.68L516.26 817.68L522.61 801.09L559.21 801.09L565.48 817.68L583.83 817.68L548.15 728.72L534.08 728.72ZM553.76 786.65L541.03 752.99L528.14 786.65L553.76 786.65ZM594.33 728.72L594.33 817.68L611.55 817.68L611.55 764.72L633.18 799.45L644.83 799.45L666.61 764.48L666.61 817.68L683.69 817.68L683.69 728.72L671.52 728.72L639.05 780.84L606.48 728.72L594.33 728.72ZM701.91 728.72L701.91 817.68L719.13 817.68L719.13 784.65L736.98 784.65C742.6 784.65 747.67 783.53 752.17 781.28C754.81 779.93 757.19 778.24 759.18 776.24C760.58 774.84 761.83 773.28 762.91 771.55C763.02 771.37 763.12 771.2 763.23 771.02C765.63 766.95 766.83 762.18 766.83 756.69C766.83 751.09 765.59 746.24 763.11 742.15C763.04 742.04 762.97 741.93 762.91 741.82C761.81 740.07 760.54 738.48 759.1 737.06C757.13 735.1 754.83 733.47 752.21 732.15C752.13 732.11 752.05 732.07 751.98 732.03C747.52 729.83 742.53 728.72 736.98 728.72L701.91 728.72ZM719.13 742.75L719.13 770.59L735.19 770.59C737.77 770.59 740.1 770.09 742.21 769.1C742.31 769.05 742.41 769 742.51 768.95C743.75 768.34 744.84 767.57 745.78 766.65C746.51 765.93 747.15 765.12 747.71 764.22C748.98 762.14 749.62 759.63 749.62 756.69C749.62 753.8 748.98 751.31 747.71 749.21C747.1 748.19 746.38 747.29 745.54 746.51C744.66 745.68 743.65 744.98 742.51 744.42C742.35 744.33 742.18 744.25 742.02 744.18C739.96 743.23 737.69 742.75 735.19 742.75L719.13 742.75Z" fill="#000000" fill-opacity="1.000000" fill-rule="evenodd"/>
			</g>
		</g>
	</g>
</svg>
